icons/folder-mjml.svg

<svg xmlns="http://www.w3.org/2000/svg" viewBox="0 0 16 16"><path id="folder" fill="#ff5722" d="m6.922 3.768-.644-.536A1 1 0 0 0 5.638 3H2a1 1 0 0 0-1 1v8a1 1 0 0 0 1 1h12a1 1 0 0 0 1-1V5a1 1 0 0 0-1-1H7.562a1 1 0 0 1-.64-.232"/><path id="motive" fill="#ffccbc" d="M8 6c-.554 0-1 .446-1 1s.446 1 1 1h4c.554 0 1-.446 1-1s-.446-1-1-1Zm7 0a1 1 0 0 0-1 1 1 1 0 0 0 1 1 1 1 0 0 0 1-1 1 1 0 0 0-1-1M8 9a1 1 0 0 0-1 1 1 1 0 0 0 1 1 1 1 0 0 0 1-1 1 1 0 0 0-1-1m3 0c-.554 0-1 .446-1 1s.446 1 1 1h4c.554 0 1-.446 1-1s-.446-1-1-1zm-3 3c-.554 0-1 .446-1 1s.446 1 1 1h4c.554 0 1-.446 1-1s-.446-1-1-1zm7 0a1 1 0 0 0-1 1 1 1 0 0 0 1 1 1 1 0 0 0 1-1 1 1 0 0 0-1-1"/></svg>

<svg xmlns="http://www.w3.org/2000/svg" viewBox="0 0 16 16">
<path id="folder" fill="#ff5722" d="m6.922 3.768-.644-.536A1 1 0 0 0 5.638 3H2a1 1 0 0 0-1 1v8a1 1 0 0 0 1 1h12a1 1 0 0 0 1-1V5a1 1 0 0 0-1-1H7.562a1 1 0 0 1-.64-.232" />
<path id="motive" fill="#ffccbc" d="M 8,6 C 7.446,6 7,6.446 7,7 7,7.554 7.446,8 8,8 h 4 C 12.554,8 13,7.554 13,7 13,6.446 12.554,6 12,6 Z m 7,0 A 1,1 0 0 0 14,7 1,1 0 0 0 15,8 1,1 0 0 0 16,7 1,1 0 0 0 15,6 Z M 8,9 A 1,1 0 0 0 7,10 1,1 0 0 0 8,11 1,1 0 0 0 9,10 1,1 0 0 0 8,9 Z m 3,0 c -0.554,0 -1,0.446 -1,1 0,0.554 0.446,1 1,1 h 4 c 0.554,0 1,-0.446 1,-1 0,-0.554 -0.446,-1 -1,-1 z m -3,3 c -0.554,0 -1,0.446 -1,1 0,0.554 0.446,1 1,1 h 4 c 0.554,0 1,-0.446 1,-1 0,-0.554 -0.446,-1 -1,-1 z m 7,0 a 1,1 0 0 0 -1,1 1,1 0 0 0 1,1 1,1 0 0 0 1,-1 1,1 0 0 0 -1,-1 z" />
</svg>
